!!!PDT:	1923
!!!LANG: Non-Tone
!!!LING_GROUP: Siouan
!!!REG: Dakotas
!!!COM: Anon.
!!!OTL: Fox Society Serenade
!!!ODT: <1918//
!!!MPN: Malitikikanaka [Sitting Rabbit]
!!!MLC: Fort Berthold Reservation, North Dakota, United States of America
!! Song was recorded during either the summer of 1912, 1915, or 1918.
!!!AGN: monody
!!!SOCIAL_FUNCTION: Mandan and Hidatsa Men's Fox Society
!!!AMT: irregular
!!!RWG: Transcribed pitches, durations, and meters are only approximate.
!! Drum Tempo: MM58
!! Drum-rhythm: (4 4 4 4)
**kern
*ICvox
*Imale
*clefF4
*k[f#c#]
*M2/4
*MM100
8d
8d
=1
8e
8e
8e
8d
=2
8e
8d
8d
8d
=3
8e
8d
8d
8d
*M3/4
=4
8A
8A
4A
4A
*M2/4
=5
4d
8d
8A
=6
8d
8A
8A
8A
=7
8d
8A
8A
8F#
*M3/4
=8
4E
4E
8D
8D
*M2/4
=9
8F#
8F#
8F#
8E
=10
8F#
8E
8E
8E
=11
8F#
8E
4E
*M3/4
=12
4D
4D
4D
*M2/4
=13
4E
8E
8D
=14
8E
8D
8D
8D
=15
2AA
*M3/4
=16
12D
12D
12D
4.D
8AA
=17
4D
2D
==
*-
!!!CNT: Mandan
!!!TXO: Mandan
!!!OCY: United States
!!!OCL: Frances Densmore
!!!YOR: Frances Densmore, "Mandan and Hidatsa Music",
!!!YOR: Bulletin 80, page 125, No. 55
!!!PPR: Smithsonian Institution, Bureau of American Ethnology
!!!PPR: Government Printing Office
!!!PDT: 1923
!!!PPP: Washington, DC, United States of America
!!!YEC: Electronic Copyright 2000 David Huron
!!!YER: August 2000
!!!YEN: United States of America
!!!ENC: David Huron
!!!RDT: August 17, 2000
!!!EEV: Release 1.0
!!!AIN: tom, vox
